X:1
T:Non t'accostare all'urna
T:Giuseppe Verdi
T:Jacopo Vittorelli
T:Non t'accostare all'urna
T:Copyright © PriMož HladniK
T:Copyright © PriMož HladniK
T:Copyright © PriMož HladniK
T:Copyright © PriMož HladniK
T:Copyright © PriMož HladniK
T:Copyright © PriMož HladniK
C:Giuseppe Verdi
Z:Jacopo Vittorelli
Z:Copyright © PriMož HladniK
%%score 1 { 2 | ( 3 4 5 ) }
L:1/8
Q:1/4=80
M:4/4
K:Eb
V:1 treble nm="Voice" snm="Voice"
V:2 treble nm="Piano" snm="Pno."
V:3 bass 
V:4 bass 
V:5 bass 
V:1
 z8 | z8 | z8 | z8 | z8 | z8 | c2 =B>c G7/2 G/ | (A7/2 G/) F3 A |!<(! G2 (d2-!<)!!>(! dF A>)!>)!G | %9
w: ||||||Non t'ac- cos- ta- re~all'|ur- * na Che|il ner _ _ mio rin-|
 (G3 F/E/) E2 z2 | c2 =B>c G7/2 G/ | (A7/2 G/) F2 z A |!<(! G2 d2-!<)!!>(! dF A>!>)!G |{F} E4 z4 | %14
w: ser- * * ra|Que- sta pie- to sa|ter- * ra È|sa- cra _ al mio do-||
"^con forza"!<(! c2 c>c e7/2!<)! e/ |"^dim."!>(! (B3 A) G2!>)! z3/2 G/ | A2 f2- fedc | %17
w: O- dio gli affan- ni|tuo- * i, Ri-|cu- so _ i tuoi gia-|
 (=B3 d/c/) B3 G | c2 =B>c G7/2 G/ | (A7/2 G/) F2 z A | A>G G3!<(! G=A!<)!=B | %21
w: cin- * * ti; Che|gio- va- no a- gil~e-|stin- * ti Due|la- cri- me o du- e|
!<(! c2 e2!<)!!>(! dcB!>)!A | A>G G3!<(! G=A=B | c2 e2!<)!!>(! dc_B!>)!_A | %24
w: fior? Che gio- va- no due|la- cri- me o du- e|fior? Che gio- va- no due|
 A>G G3 c !fermata!e>^F | G4 z4 ||"^Allegro"[Q:1/4=120][Q:1/4=120] !>!_d2 !>!c2 z4 | %27
w: la- cri- me o du- e|fior?|Em- pia!|
 =B2 _B2 z3/2!p! B/ B>=A |!<(! G4 =A4 | B>=A B>A B3!<)! c |!>(! d6!>)! D2 | %31
w: Em- pia! do- ve- vi~al-|lo- ra|Por- ger- mi un fil d'a-|i- ta|
"^un poco agitato" ed z ^c d=c z B | =A2 G2 z2 z d | ed z ^c d3 =c | B8 | =A4 c2 e2 | %36
w: Quan- do tra- e- a la|vi- ta Nel-|l'an- sia e nei sos-|pir,|Quan- do tra-|
 (ed)^cd (fe)d=c | cB z d !>!!fermata!_e3 d | G2 z2 z4 | z8 | z4 !fermata!z2 z G || %41
w: e- * a la vi- * ta Nel-|l'an- sia e nei so-|spir.||A|
"^A tempo" (A2 f3)!>(! ed!>)!c | (=B3 d/c/) B3 G |!<(! A2 (f3!<)!!>(! e)d!>)!c | (=B3 d/c/) B3 G | %45
w: che * d'i- nu- til|pian- * * to As-|sor- di _ la fo-|re- * * sta? Ris-|
 c2 =B>c G7/2 G/ | (A7/2 G/) F3 A |!<(! (G2 d3)!<)!!>(! F A>!>)!G | E3- E/ z/ z2 z c | %49
w: pet- ta un' om- bra|me- * sta E|la- * sci- la dor-|mir, _ Ris-|
 (c4 C) z/ c/ c>c |!>(! (c6 B>)!>)!A | G7/2 A/ G2 (^F=F) | E4 z2 z c | c4 C>c c>c | (_d4 A2) z A | %55
w: pet- ta un' om- bra-|me- sta E|la- scia- la dor- *|mir, Ris-|pet- ta un' om- bra-|me- sta E|
 G7/2 G/ G7/2 G/ | C4 z4 | z8 | z8 | z8 |] %60
w: la- scia- la dor-|mir.||||
V:2
 z4 ([=B,DF_A]4 | [CEG]2) z2 (!>![B,_D=EG]4 | [A,CF]) z ([A,=B,=DF]2 [G,C_E]) z [CE]2 | %3
 [CD] z [=B,D]2 C z C2 | C z =B,2 !fermata!z4 | z [CEG][CEG][CEG] [CEG][CEG][CEG][CEG] | %6
 z [CEG][CEG][CEG] [CEG][CEG][CEG][CEG] | z [CFA][CFA][CFA] [CFA][CFA][CFA][CFA] | %8
 z [=B,DFG][B,DFG][B,DFG] [B,DFG][B,DFG][B,DFG][B,DFG] | z [CEG][CEG][CEG] [CEG][CEG][CEG][CEG] | %10
 z [CEG][CEG][CEG] [CEG][CEG][CEG][CEG] | z [CFA][CFA][CFA] [CFA][CFA][CFA][CFA] | %12
 z [=B,DFG][B,DFG][B,DFG] [B,DFG][B,DFG][B,DFG][B,DFG] | z [CEG][CEG][CEG] [CEG][CEG][CEG][CEG] | %14
 [A,CEA]!p![CEA][CEA][CEA] z [E_Gc][EGc][EGc] | z [DFB][DFB][DFA] z [EG][EG][EG] | %16
 z [CFA][CFA][CFA] z [CDFA][CDFA][CDFA] | z [=B,DFG][B,DFG][B,DFG] z [B,DFG][B,DFG][B,DFG] | %18
 z [CEG][CEG][CEG] [CEG][CEG][CEG][CEG] | z [CFA][CFA][CFA] [CFA][CFA][CFA][CFA] | %20
 z [CEG][CEG][CEG] z [=B,DG][B,DG][B,DG] | z [CEG][CEG][CEG] z [CFA][CFA][CFA] | %22
 z [CEG][CEG][CEG] z [=B,DG][B,DG][B,DG] | z [CEG][CEG][CEG] z [CFA][CFA][CFA] | %24
 z [CEG][CEG][CEG] [C^F]3 z | [=B,G]4 z4 ||"^Allegro" !>![=EGB_d]2 !>![F=A^c]2 z4 | %27
 !>![DF_A_c]2 !>![EGB]2 z4 | z [B,DG][B,DG][B,DG] z [D^F=A][DFA][DFA] | %29
 z [DGB] z [DGB] z [DGB] z [DGB] | [D=A]2 z2 z4 | z [CD^F=A] z [CDFA] z [CDFA] z [CDFA] | %32
 z [B,DG] z [B,DG] z [B,DG] z [B,DG] | z [CD^F=A] z [CDFA] z [CDFA] z [CDFA] | [B,=EG]8 | %35
 [=A,_E^F]4 z4 | z [B,DG] z [B,DG] z [=A,EG] z [A,EG] | z [B,DG] z [B,DG] [=A,^F]2 !fermata!z2 | %38
 [B,G]3 [DB] ([DB][^C=A]) z [=CA] | ([C=A][B,G]) z [DB] ([DB][^CA]) z [=CA] | [B,G]4 !fermata!z4 || %41
"^A tempo" ([C_A]4 [FA]4) | [=B,D] z (!>!_A2 G2) z2 | ([CA]4 [FA]4) | [=B,D] z (_A2 G2) z2 | %45
 z [CEG] [CEG][CEG] [CEG][CEG][CEG][CEG] | z [CFA][CFA][CFA] [CFA][CFA][CFA][CFA] | %47
 z [=B,DFG][B,DFG][B,DFG] [B,DFG][B,DFG][B,DFG][B,DFG] | z [CE][CE][CE] z [CE][CE][CE] | %49
 z [CE][CE][CE] z [CE][CE][CE] | z [CDFA][CDFA][CDFA] z [CDFA][CDFA][CDFA] | %51
 z [CEG][CEG][CEG] z [=B,DG][B,D^F][B,D=F] | z [CE][CE][CE] z [CE][CE][CE] | %53
 z [CE][CE][CE] z [CE][CE][CE] | [A,_D]6 z2 | z EEE z DDD | C2 z2 (A3 G) | [CEGc]2 z2 (!>!A3 G) | %58
"^morendo" C2 z2 C2 z2 | C8 |] %60
V:3
!p! !///-!G,,,2 G,,2 !///-!G,,,2 G,,2 | !///-!G,,,2 G,,2 !///-!G,,,2 G,,2 | %2
 !///-!G,,,2 G,,2 !///-!G,,,2 G,,2 | !///-!G,,,2 G,,2 !///-!G,,,2 G,,2 | %4
 [G,,,G,,] z [G,,,G,,]2 !fermata!z4 |!p! [C,,C,]2 z2 z4 | [C,,C,]2 z2 z4 | [F,,F,]2 z2 z4 | %8
 [G,,G,]2 z2 z2 z2 | [C,,C,]2 z2 z2 z2 | [C,,C,]2 z2 z2 z2 | [F,,F,]2 z2 z2 z2 | %12
 [G,,G,]2 z2 z2 z2 | [C,,C,]2 z2 z2 z2 |!f!!p!{E,,F,,G,,} [A,,,A,,]4 =A,,4 | B,,4 E,2 z2 | %16
 [F,,F,]2 z2 [D,,D,]2 z2 | [G,,G,]2 z2 [G,,G,]2 z2 | [C,,C,]2 z2 z2 z2 | [F,,F,]2 z2 z2 z2 | %20
 [G,,G,]2 z2 [G,,,G,,]2 z2 | [C,,C,]2 z2 [F,,F,]2 z2 | [G,,G,]2 z2 [G,,,G,,]2 z2 | %23
 [C,,C,]2 z2 [F,,F,]2 z2 | [G,,G,]2 z2 [A,,A,]3 z | [G,,G,]4 z4 || !>![=E,,=E,]2 !>![F,,F,]2 z4 | %27
 !>![D,,D,]2 !>![_E,,_E,]2 z4 |!p! [D,,D,]2 z2 [D,,D,]2 z2 | %29
 [G,,G,] z [G,,G,] z [G,,G,] z [G,,G,] z | [_G,,_G,]2 z2 z4 | D, z A, z ^F, z D, z | %32
 G, z D, z B,, z G,, z | D, z =A, z ^F, z D, z | ^C,8 | C,4 z4 | B,, z B,, z C, z C, z | %37
 D, z D, z D,,2 !fermata!z2 | G,,G,G,,D, G,,=E,G,,_G, | G,,G,G,,D, G,,=E,G,,_G, | %40
 [G,,G,]4 !fermata!z4 ||!p! F,4 D,4 | G, z z2 z4 | F,4 D,4 | G, z z2 z4 | [C,,C,]2 z2 z4 | %46
 [F,,F,]2 z2 z4 | [G,,G,]2 z2 z4 |!p! C,4 _B,,4 | A,,4 G,,4 | F,,2 z2 [D,,D,]2 z2 | %51
 [G,,G,]2 z2 [G,,G,]2 z2 | C,4 _B,,4 | A,,4 G,,4 | F,,6 z2 | [G,,,G,,]2 z2 [G,,,G,,]2 z2 | %56
 !///-!C,,2 C,2 !///-!C,,2 C,2 | !///-!C,,2 C,2 !///-!C,,2 C,2 | [E,G,]2 z2 [E,G,]2 z2 | %59
 [C,E,G,]8 |] %60
V:4
 x8 | x8 |[I:staff -1] x6[I:staff +1] [_G,=A,]2 | %3
 [F,_A,][I:staff -1] x[I:staff +1] [F,A,]2 [=E,G,][I:staff -1] x[I:staff +1] [_E,_G,=A,]2 | %4
 [D,F,_A,][I:staff -1] x[I:staff +1] [D,=F,G,]2[I:staff -1] x4 | x8 | x8 | x8 | x8 | x8 | x8 | x8 | %12
 x8 | x8 | x8 | x8 | x8 | x8 | x8 | x8 | x8 | x8 | x8 | x8 | x8 | x8 || x8 | x8 | x8 | x8 | x8 | %31
 x8 | x8 | x8 | x8 | x8 | x8 | x8 | x8 | x8 | x8 || x8 | x x !>![=B,DF]4 z2 | x8 | %44
 x x [=B,DF]4 z2 | x8 | x8 | x8 | x8 | x8 | x8 | x8 | x8 | x8 | x8 | %55
 x[I:staff +1] [G,C][G,C][G,C][I:staff -1] x[I:staff +1] [F,G,=B,][F,G,_B,][F,G,B,] | %56
 [E,G,]2[I:staff -1] x2 [=B,DF]4 | z4 !>![=B,DF]4 | x8 | x8 |] %60
V:5
 x8 | x8 | x8 | x8 | x8 | x8 | x8 | x8 | x8 | x8 | x8 | x8 | x8 | x8 | x8 | x8 | x8 | x8 | x8 | %19
 x8 | x8 | x8 | x8 | x8 | x8 | x8 || x8 | x8 | x8 | x8 | x8 | x8 | x8 | x8 | x8 | x8 | x8 | x8 | %38
 x8 | x8 | x8 || x8 | x8 | x8 | x8 | x8 | x8 | x8 | x8 | x8 | x8 | x8 | x8 | x8 | x8 | x8 | x8 | %57
 x8 | [C,,C,]2 x2 [C,,C,]2 x2 | C,,8 |] %60

